X: 109204
T: SANDY O'ER THE LEA
Q: "Reel."
R:  Reel.
%R: reel
B: James Kerr "Merry Melodies" v.1 p.9 s.2 #4
Z: 2017 John Chambers <jc:trillian.mit.edu>
M: C
L: 1/8
K: D
|: uF |\
DEFG AFFB | AFFD E2(EF) |\
DEFG AFFB | AGFE D2-D ::\
g |\
faef defa | AFFD E2-Eg |\
faef defa | AGFE D2-D :|
|: uA |\
FADA FADB | AFFD E2(EA) |\
FADA FADB | AGFE D2-D ::\
ug |\
faef defa | AFFD E2-Eg |\
faef defa | AGFE D2-D :|\
"_Fine."D4 ||

% %newpage
%%sep 1 1 500
%%sep 1 1 500
%%center Set. 14th.

%%sep 1 1 500
%%sep 1 1 500

